svgs/regular/dice-d12.svg

<svg xmlns="http://www.w3.org/2000/svg" viewBox="0 0 512 512"><!--! Font Awesome Pro 6.3.0 by @fontawesome - https://fontawesome.com License - https://fontawesome.com/license (Commercial License) Copyright 2023 Fonticons, Inc. --><path d="M508.6 185.2l-55.87-111.7c-3.125-6.125-8.125-11.12-14.25-14.25l-111.7-55.87C322.4 1.125 317.4 0 312.5 0h-113C194.6 0 189.6 1.125 185.2 3.375L73.5 59.25C67.38 62.38 62.38 67.38 59.25 73.5L3.375 185.2C1.125 189.6 0 194.6 0 199.5v113c0 4.875 1.125 9.75 3.375 14.25l55.87 111.7c3.125 6.125 8.125 11.12 14.25 14.25l111.7 55.87C189.6 510.9 194.6 512 199.5 512h113c4.875 0 9.75-1.125 14.25-3.375l111.7-55.87c6.125-3.125 11.12-8.125 14.25-14.25l55.87-111.7C510.9 322.2 512 317.4 512 312.5v-113C512 194.6 510.9 189.8 508.6 185.2zM455 185.4l-78.13 104.2L280 241.1v-93.5l140.8-28.12l-1-4.625L455 185.4zM300.5 464h-89l-53-132.4L256 282.9l97.5 48.75L300.5 464zM203.4 48h105.3L373 80.12L256 103.5L139 80.12L203.4 48zM92.25 114.9l-1 4.625L232 147.6v93.5L135.1 289.6L57 185.4L92.25 114.9zM48 308.6v-55.25l58.88 78.5l42 104.9L99.75 412.2L48 308.6zM412.2 412.2l-49.12 24.5l42-104.9L464 253.4v55.25L412.2 412.2z"/></svg>

<svg xmlns="http://www.w3.org/2000/svg" viewBox="0 0 512 512"><!-- Font Awesome Pro 6.0.0-alpha2 by @fontawesome - https://fontawesome.com License - https://fontawesome.com/license (Commercial License) --><path d="M508.625 185.25L452.75 73.5C449.625 67.375 444.625 62.375 438.5 59.25L326.75 3.375C322.375 1.125 317.375 0 312.5 0H199.5C194.625 0 189.625 1.125 185.25 3.375L73.5 59.25C67.375 62.375 62.375 67.375 59.25 73.5L3.375 185.25C1.125 189.625 0 194.625 0 199.5V312.5C0 317.375 1.125 322.25 3.375 326.75L59.25 438.5C62.375 444.625 67.375 449.625 73.5 452.75L185.25 508.625C189.625 510.875 194.625 512 199.5 512H312.5C317.375 512 322.25 510.875 326.75 508.625L438.5 452.75C444.625 449.625 449.625 444.625 452.75 438.5L508.625 326.75C510.875 322.25 512 317.375 512 312.5V199.5C512 194.625 510.875 189.75 508.625 185.25ZM455 185.375L376.875 289.625L280 241.125V147.625L420.75 119.5L419.75 114.875L455 185.375ZM300.5 464H211.5L158.5 331.625L256 282.875L353.5 331.625L300.5 464ZM203.375 48H308.625L373 80.125L256 103.5L139 80.125L203.375 48ZM92.25 114.875L91.25 119.5L232 147.625V241.125L135.125 289.625L57 185.375L92.25 114.875ZM48 308.625V253.375L106.875 331.875L148.875 436.75L99.75 412.25L48 308.625ZM412.25 412.25L363.125 436.75L405.125 331.875L464 253.375V308.625L412.25 412.25Z "></path></svg>
